X:060
T:Calum Breugach
T:Callam Brougach
B:The Beauties of Niel Gow, Pt.2
Z:Nigel Gatherer
M:4/4
L:1/8
K:Am
A|G<EEG D>EG>B|A<Ae>A c>Ae>A|G<EEG D>EG>B|c>Ac>G A<A e2|
G<E EG D>EG>B|A<A e>A c>Ae>A|G<E EG D>EG>B|c>AB>G A/A/A e||
^f|gg a/g/^f/e/ d/c/B/A/ G>B|A/B/c/d/ e>A cB/A/ e^f|\
gg a/g/^f/e/ d/c/B/A/ G>B|c>AB>G A/A/A a2|
gB|G<E EG D>EG>B|c>AB>G A/A/A e||
^f|g<ee>g d>eg>a|ba ag/a/ baa>b|g<ee>g d>eg>a|ba ag a2-a b|
g<ee>g d>eg>a|ba ag/a/ baa>b|g<ee>g d>eg>a|baag a2 e||
^f|gg a/g/^f/e/ d/c/B/A/ G>B|A/B/c/d/ e>A cB/A/ e^f|\
gg a/g/^f/e/ d/c/B/A/ G>B|c>AB>G A/A/A a2|
gB|G<E EG D>EG>B|c>AB>G A<A e||
